Vector/symbolic/status/nm-signal-0-secure-symbolic.svg

<?xml version="1.0" encoding="UTF-8" standalone="no"?>
<svg
   width="16"
   height="16"
   version="1.1"
   id="svg6"
   sodipodi:docname="nm-signal-0-secure-symbolic.svg.svg"
   inkscape:version="1.1.1 (3bf5ae0d25, 2021-09-20, custom)"
   xmlns:inkscape="http://www.inkscape.org/namespaces/inkscape"
   xmlns:sodipodi="http://sodipodi.sourceforge.net/DTD/sodipodi-0.dtd"
   xmlns="http://www.w3.org/2000/svg"
   xmlns:svg="http://www.w3.org/2000/svg">
  <defs
     id="defs10" />
  <sodipodi:namedview
     id="namedview8"
     pagecolor="#ffffff"
     bordercolor="#666666"
     borderopacity="1.0"
     inkscape:pageshadow="2"
     inkscape:pageopacity="0.0"
     inkscape:pagecheckerboard="0"
     showgrid="false"
     inkscape:zoom="45.254834"
     inkscape:cx="8.3747959"
     inkscape:cy="12.297029"
     inkscape:window-width="1920"
     inkscape:window-height="1019"
     inkscape:window-x="0"
     inkscape:window-y="0"
     inkscape:window-maximized="1"
     inkscape:current-layer="svg6" />
  <path
     id="path2"
     fill="#555555"
     d="M 8 1.0078125 C 5.1045375 1.0078125 2.20915 2.1124625 0 4.3203125 L 8 14.007812 L 9 12.796875 L 9 11 L 10 11 A 3 3 0 0 1 12.958984 8.0039062 L 16 4.3203125 C 13.791 2.1124625 10.895463 1.0078125 8 1.0078125 z M 7.8378906 2.5273438 C 9.9960092 2.4849621 12.2092 3.1666565 13.800781 4.6992188 L 8 11.5 L 2.1992188 4.6992188 C 3.5751633 3.3361826 5.679772 2.5697252 7.8378906 2.5273438 z " />
  <path
     d="m 13,9.0000005 c -1.108,0 -2,0.91 -2,2.0309995 V 12 h -1 v 4 h 6 V 12 H 15 V 11.031001 C 15,9.9110005 14.108,9.0000005 13,9.0000005 Z m 0,0.999999 c 0.554,0 1,0.4420005 1,1.0000005 v 1 h -2 v -1 c 0,-0.558 0.446,-1.0000005 1,-1.0000005 z"
     color="#000000"
     fill="#555555"
     overflow="visible"
     id="path8" />
</svg>

<svg width="16" height="16" version="1.1" xmlns="http://www.w3.org/2000/svg">
 <g transform="translate(-425 615)">
  <path transform="translate(425,-615)" d="m8 1.0078c-2.8955 0-5.7908 1.1046-8 3.3125l8 9.6875 1-1.2109v-1.7969h1.0137c0.019481-1.6206 1.3205-2.972 2.9434-2.9961l3.043-3.6836c-2.209-2.2078-5.1045-3.3125-8-3.3125z" fill="#555555" opacity=".3"/>
 </g>
 <path d="m13 9c-1.108 0-2 0.91-2 2.031v0.969h-1v4h6v-4h-1v-0.969c0-1.12-0.892-2.031-2-2.031zm0 1c0.554 0 1 0.442 1 1v1h-2v-1c0-0.558 0.446-1 1-1z" color="#000000" fill="#555555" overflow="visible"/>
</svg>
